X:1
T:Ach, Was Soll, 87.78.77
T:Ach, Was Soll, 87.78.77
T:Hirtenlieder (Altdorf, German
T:Public Domain Courtesy of the Cyber Hymnal™
C:Hirtenlieder (Altdorf, German
Z:Public Domain
Z:Courtesy of the Cyber Hymnal™
%%score ( 1 2 ) 3
L:1/8
Q:1/4=110
M:4/4
K:F
V:1 treble 
V:2 treble 
V:3 bass 
V:1
 [A,D]2 [A,D]2 [DF]2 [CF]2 | [DG]2 [EG]2 [FA]2 [CF]2 | [Fc]2 [Gc]2 [FB]2 [FA]2 | %3
 [FG]2 [EG]2 [CF]4 | [EG]2 [EG]2 [EA]2 [DF]2 | [DE]2 [^CE]2 D4 | [Fd]2 [Fd]2 [Ec]2 [Ec]2 | %7
 [F=B]2 [EB]2 [EA]2 [EA]2 | [FA]2 [Fc]2 [FB]2 [FA]2 | [FG]2 [EG]2 [CF]4 | [EG]2 [EG]2 [EA]2 [DF]2 | %11
 [DE]2 [^CE]2 [A,D]4 |] %12
V:2
 x8 | x8 | x8 | x8 | x8 | x4 D4 | x8 | x8 | x8 | x8 | x8 | x8 |] %12
V:3
 [D,F,]2 [D,F,]2 [D,A,]2 [A,,A,]2 | [B,,G,]2 [C,C]2 [F,C]2 [F,,A,]2 | %2
 [F,A,]2 [E,C]2 [D,D]2 [F,C]2 | [B,,D]2 [B,,C]2 [F,,A,]4 | [C,C]2 [B,,D]2 [A,,^C]2 [D,A,]2 | %5
 [G,,B,]2 [A,,A,]2 [D,F,]4 | [D,A,]2 [D,A,]2 [A,,C]2 [C,A,]2 | [D,A,]2 [E,^G,]2 [A,,D]2 [A,,^C]2 | %8
 [F,C]2 [A,,C]2 [B,,D]2 [F,C]2 | [C,C]2 [C,C]2 [F,,A,]4 | [C,C]2 [B,,D]2 [A,,^C]2 [D,A,]2 | %11
 [G,,B,]2 [A,,A,]2 [D,^F,]4 |] %12

